X: 33
T:Home Made Reel (#233), The
M:4/4
L:1/8
S:Capt. F. O'Neill
R:Reel
K:D
de|fedB A2 FG|AFBF A2 de|fedB A2 FA|Beef e2 de|
fedB A2 FG|AcBG A2 de|fefd BAFA|Bdde d2:|
|:de|fdad fddg|fdaf e2 de|1fdad fddA|Bdde d2:|
2faaf gabg|afef d2||
%
% SEE NOTES TO FACTORY LASS [#232]

